X:1
T:Wir Glauben All, 88.88.88.88.88
T:Wir Glauben All, 88.88.88.88.88
T:Manuskript Gesangbuch, Langenöls, 1748
T:Public Domain Courtesy of the Cyber Hymnal™
C:Manuskript Gesangbuch, Langenöls, 1748
Z:Public Domain
Z:Courtesy of the Cyber Hymnal™
%%score ( 1 2 ) ( 3 4 )
L:1/8
Q:1/4=112
M:4/4
K:C
V:1 treble 
V:2 treble 
V:3 bass 
V:4 bass 
V:1
 z2 [Ec]2 [Ec]2 ([GB][FA]) | [EG]2 [CA]2 [CD]2 [B,G]2 | [CE]4 [B,D]2 [DG]2 | %3
 [D^F]2 [B,G]2 [Dc]2 [DB]2 | [DA]4 [B,G]4 | z2 [Ec]2 [Ec]2 ([GB][FA]) | [EG]2 [CA]2 [CD]2 [B,G]2 | %7
 [CE]4 [B,D]2 [DG]2 | [D^F]2 [B,G]2 [Dc]2 [DB]2 | [DA]4 [B,G]4 | [DG]2 [Gc]2 [Fd]2 [Ge]2 | %11
 [^Fd]2 (Bc) [Dd]2 [DG]2 | [FA]2 [EG]2 [DF]2 [CE]2 | [CD]2 [B,G]2 [CE]2 C2 | %14
 [EG]2 [Ec]2 [Gd]2 [Ge]2 | [^Fd]2 (Bc) [Dd]2 [DG]2 | [FA]2 [EG]2 [DF]2 [CE]2 | %17
 [CD]2 [B,G]2 [CE]2 C2 | z2 [EG]2 [FA]2 [Dd]2 | [DB]2 [EG]2 [Gd]2 [Ge]2 | [Gd]2 [Ff]2 [Ge]2 [Gd]2 | %21
 [Ec]2 (AB) [Gc]2 [Gd]2 | [Ec]8 |] %23
V:2
 x8 | x8 | x8 | x8 | x8 | x8 | x8 | x8 | x8 | x8 | x8 | x2 G2 x4 | x8 | x6 C2 | x8 | x2 G2 x4 | %16
 x8 | x6 C2 | x8 | x8 | x8 | x2 F2 x4 | x8 |] %23
V:3
 z2 [C,G,]2 [A,,C]2 C2 | [C,C]2 [F,A,]2 G,2 [G,,G,]2 | [C,G,]4 [G,,G,]2 [B,,G,]2 | %3
 [D,A,]2 [E,G,]2 [^F,A,]2 G,2 | G,2 ^F,2 G,4 | z2 [C,G,]2 [A,,C]2 C2 | %6
 [C,C]2 [F,A,]2 G,2 [G,,G,]2 | [C,G,]4 [G,,G,]2 [B,,G,]2 | [D,A,]2 [E,G,]2 [^F,A,]2 G,2 | %9
 (G,2 ^F,2) G,4 | [G,B,]2 [E,G,]2 [D,A,]2 [C,C]2 | [D,A,]2 [E,G,]2 [^F,A,]2 [G,B,]2 | %12
 [F,C]2 [C,C]2 [D,A,]2 [A,,A,]2 | [F,,A,]2 [G,,G,]2 [C,G,]2 [C,E,]2 | %14
 [E,B,]2 [A,C]2 [G,B,]2 [C,C]2 | [D,A,]2 [E,G,]2 [^F,A,]2 [G,B,]2 | %16
 [F,C]2 [C,C]2 [D,A,]2 [A,,A,]2 | [F,,A,]2 [G,,G,]2 [C,G,]2 [C,E,]2 | z2 [C,C]2 [F,C]2 [^F,A,]2 | %19
 G,2 [E,B,]2 [B,,D]2 [C,C]2 | [G,B,]2 [D,A,]2 [E,C]2 [G,B,]2 | [A,C]2 [D,D]2 [E,C]2 [G,B,]2 | %22
 [C,C]8 |] %23
V:4
 x6 (E,F,) | x4 G,2 x2 | x8 | x6 G,2 | D,4 G,4 | x6 (E,F,) | x4 G,2 x2 | x8 | x6 G,2 | D,4 G,4 | %10
 x8 | x8 | x8 | x8 | x8 | x8 | x8 | x8 | x8 | G,2 x6 | x8 | x8 | x8 |] %23

